;FLAVOR:UltiGCode
;TIME:1073      
;MATERIAL:2795      
;MATERIAL2:0         

;Layer count: 118
;LAYER:0
M107
G0 F9000 X92.534 Y107.204 Z0.200
G0 X93.759 Y106.151
;TYPE:SKIRT
G1 F1200 X95.182 Y105.374 E0.17834
G1 X96.737 Y104.910 E0.35685
G1 X98.130 Y104.800 E0.51055
G1 X99.211 Y104.814 E0.62947
G1 X106.404 Y104.915 E1.42078
G1 X114.621 Y105.032 E2.32474
G1 X114.661 Y105.032 E2.32914
G1 X130.851 Y105.260 E4.11022
G1 X132.103 Y105.277 E4.24795
G1 X133.711 Y105.488 E4.42635
G1 X135.462 Y106.214 E4.63486
G1 X136.966 Y107.368 E4.84339
G1 X138.118 Y108.871 E5.05169
G1 X138.838 Y110.607 E5.25843
G1 X139.038 Y112.089 E5.42293
G1 X139.076 Y112.623 E5.48181
G1 X138.849 Y114.350 E5.67342
G1 X138.248 Y115.820 E5.84811
G1 X137.992 Y116.293 E5.90727
G1 X136.965 Y117.632 E6.09290
G1 X135.462 Y118.785 E6.30127
G1 X133.713 Y119.510 E6.50954
G1 X132.109 Y119.722 E6.68751
G1 X130.910 Y119.738 E6.81941
G1 X99.348 Y120.183 E10.29158
G1 X98.143 Y120.200 E10.42414
G1 X96.761 Y120.094 E10.57661
G1 X95.208 Y119.637 E10.75468
G1 X93.780 Y118.863 E10.93335
G1 X92.545 Y117.806 E11.11216
G1 X91.531 Y116.480 E11.29578
G1 X91.125 Y115.575 E11.40489
G1 X90.927 Y114.585 E11.51595
G1 X90.971 Y113.543 E11.63067
G1 X91.256 Y112.569 E11.74230
G1 X91.295 Y112.500 E11.75102
G1 X91.256 Y112.430 E11.75983
G1 X90.971 Y111.456 E11.87147
G1 X90.927 Y110.414 E11.98619
G1 X91.130 Y109.400 E12.09994
G1 X91.549 Y108.497 E12.20944
G1 X92.534 Y107.204 E12.38824
G1 X93.759 Y106.151 E12.56593
G0 F9000 X95.395 Y105.885
G1 F1200 X96.838 Y105.453 E12.73163
G1 X98.148 Y105.350 E12.87617
G1 X99.204 Y105.364 E12.99234
G1 X114.613 Y105.582 E14.68750
G1 X114.657 Y105.582 E14.69234
G1 X130.843 Y105.810 E16.47298
G1 X132.064 Y105.827 E16.60730
G1 X133.568 Y106.024 E16.77415
G1 X135.185 Y106.695 E16.96673
G1 X136.574 Y107.760 E17.15926
G1 X137.638 Y109.149 E17.35173
G1 X138.303 Y110.751 E17.54253
G1 X138.490 Y112.146 E17.69735
G1 X138.523 Y112.607 E17.74819
G1 X138.313 Y114.208 E17.92581
G1 X137.750 Y115.584 E18.08935
G1 X137.529 Y115.992 E18.14039
G1 X136.573 Y117.240 E18.31332
G1 X135.185 Y118.304 E18.50570
G1 X133.569 Y118.975 E18.69817
G1 X132.070 Y119.172 E18.86448
G1 X130.903 Y119.188 E18.99286
G1 X99.340 Y119.633 E22.46514
G1 X98.160 Y119.650 E22.59495
G1 X96.861 Y119.550 E22.73826
G1 X95.419 Y119.125 E22.90363
G1 X94.093 Y118.407 E23.06950
G1 X92.947 Y117.426 E23.23544
G1 X92.006 Y116.196 E23.40579
G1 X91.652 Y115.406 E23.50102
G1 X91.479 Y114.542 E23.59794
G1 X91.518 Y113.633 E23.69803
G1 X91.766 Y112.783 E23.79542
G1 X91.924 Y112.500 E23.83108
G1 X91.766 Y112.216 E23.86683
G1 X91.518 Y111.366 E23.96422
G1 X91.479 Y110.457 E24.06431
G1 X91.656 Y109.572 E24.16358
G1 X92.022 Y108.783 E24.25926
G1 X92.937 Y107.583 E24.42525
G1 X94.073 Y106.606 E24.59007
G1 X95.395 Y105.885 E24.75571
G10
G0 F9000 X98.276 Y109.452
;TYPE:WALL-INNER
G11
G1 F1200 X105.399 Y109.553 E25.53932
G1 X105.234 Y109.588 E25.55787
G1 X104.669 Y109.867 E25.62719
G1 X104.531 Y109.937 E25.64421
G1 X104.107 Y110.305 E25.70597
G1 X103.595 Y110.551 E25.76845
G1 X103.023 Y110.669 E25.83270
G1 X102.452 Y110.647 E25.89555
G1 X101.857 Y110.476 E25.96365
G1 X101.688 Y110.425 E25.98307
G1 X95.926 Y110.425 E26.61689
G1 X96.421 Y109.996 E26.68894
G1 X96.982 Y109.689 E26.75929
G1 X97.594 Y109.506 E26.82955
G1 X98.276 Y109.452 E26.90481
G0 F9000 X98.994 Y110.533
G0 X98.275 Y109.376
G0 X133.703 Y110.628
G0 X133.156 Y114.790
G0 X97.594 Y115.572
G0 X101.683 Y114.575
G1 F1200 X102.452 Y114.352 E26.99288
G1 X103.028 Y114.330 E27.05629
G1 X103.592 Y114.447 E27.11965
G1 X104.108 Y114.695 E27.18263
G1 X104.531 Y115.064 E27.24437
G1 X105.099 Y115.344 E27.31403
G1 X105.230 Y115.411 E27.33022
G1 X105.402 Y115.447 E27.34955
G1 X99.280 Y115.533 E28.02303
G1 X98.291 Y115.547 E28.13183
G1 X97.602 Y115.494 E28.20785
G1 X96.996 Y115.316 E28.27732
G1 X96.428 Y115.009 E28.34835
G1 X95.937 Y114.588 E28.41949
G1 X101.246 Y114.575 E29.00348
G1 X101.683 Y114.575 E29.05155
G0 F9000 X106.768 Y115.456
G0 X107.527 Y115.299
G1 F1200 X108.050 Y114.975 E29.11923
G1 X108.182 Y114.894 E29.13626
G1 X108.620 Y114.437 E29.20589
G1 X108.726 Y114.325 E29.22286
G1 X109.024 Y113.787 E29.29051
G1 X109.103 Y113.650 E29.30791
G1 X109.262 Y113.037 E29.37757
G1 X109.300 Y112.890 E29.39427
G1 X109.300 Y112.110 E29.48007
G1 X109.142 Y111.501 E29.54928
G1 X109.104 Y111.354 E29.56598
G1 X108.798 Y110.802 E29.63540
G1 X108.721 Y110.668 E29.65240
G1 X108.290 Y110.217 E29.72102
G1 X108.187 Y110.109 E29.73744
G1 X107.650 Y109.775 E29.80700
G1 X107.519 Y109.695 E29.82389
G1 X107.138 Y109.577 E29.86776
G1 X114.562 Y109.682 E30.68448
G1 X114.622 Y109.682 E30.69108
G1 X131.769 Y109.923 E32.57744
G1 X132.498 Y110.019 E32.65832
G1 X133.116 Y110.275 E32.73191
G1 X133.648 Y110.683 E32.80565
G1 X134.057 Y111.217 E32.87964
G1 X134.310 Y111.827 E32.95229
G1 X134.401 Y112.504 E33.02743
G1 X134.317 Y113.147 E33.09876
G1 X134.058 Y113.782 E33.17419
G1 X133.648 Y114.315 E33.24816
G1 X133.116 Y114.724 E33.32198
G1 X132.498 Y114.980 E33.39556
G1 X131.773 Y115.076 E33.47601
G1 X107.137 Y115.422 E36.18623
G1 X107.527 Y115.299 E36.23122
G0 F9000 X130.040 Y112.144
G1 F1200 X130.005 Y112.504 E36.27100
G1 X130.043 Y112.859 E36.31028
G1 X130.145 Y113.199 E36.34932
G1 X130.315 Y113.515 E36.38879
G1 X130.541 Y113.792 E36.42812
G1 X130.818 Y114.020 E36.46758
G1 X131.138 Y114.191 E36.50749
G1 X131.480 Y114.293 E36.54675
G1 X131.837 Y114.329 E36.58622
G1 X132.201 Y114.291 E36.62648
G1 X132.544 Y114.186 E36.66594
G1 X132.863 Y114.013 E36.70585
G1 X133.153 Y113.767 E36.74768
G1 X133.373 Y113.486 E36.78694
G1 X133.532 Y113.179 E36.82497
G1 X133.630 Y112.847 E36.86305
G1 X133.666 Y112.495 E36.90197
G1 X133.621 Y112.108 E36.94483
G1 X133.517 Y111.779 E36.98278
G1 X133.346 Y111.470 E37.02163
G1 X133.106 Y111.184 E37.06270
G1 X132.834 Y110.970 E37.10077
G1 X132.526 Y110.807 E37.13910
G1 X132.188 Y110.706 E37.17791
G1 X131.834 Y110.671 E37.21704
G1 X131.478 Y110.706 E37.25639
G1 X131.133 Y110.810 E37.29602
G1 X130.817 Y110.980 E37.33549
G1 X130.541 Y111.207 E37.37480
G1 X130.314 Y111.483 E37.41411
G1 X130.144 Y111.799 E37.45358
G1 X130.040 Y112.144 E37.49322
G0 F9000 X131.163 Y110.882
G0 X131.549 Y110.875
G0 X131.585 Y111.248
;TYPE:WALL-OUTER
G1 F1200 X131.345 Y111.321 E37.52081
G1 X131.124 Y111.439 E37.54837
G1 X130.932 Y111.598 E37.57579
G1 X130.773 Y111.790 E37.60322
G1 X130.655 Y112.011 E37.63077
G1 X130.582 Y112.251 E37.65837
G1 X130.558 Y112.501 E37.68599
G1 X130.584 Y112.750 E37.71353
G1 X130.656 Y112.988 E37.74089
G1 X130.774 Y113.208 E37.76835
G1 X130.932 Y113.402 E37.79587
G1 X131.125 Y113.561 E37.82338
G1 X131.348 Y113.680 E37.85118
G1 X131.587 Y113.751 E37.87860
G1 X131.836 Y113.776 E37.90613
G1 X132.090 Y113.750 E37.93422
G1 X132.331 Y113.676 E37.96195
G1 X132.550 Y113.557 E37.98937
G1 X132.754 Y113.384 E38.01879
G1 X132.908 Y113.187 E38.04629
G1 X133.019 Y112.973 E38.07281
G1 X133.088 Y112.740 E38.09954
G1 X133.113 Y112.498 E38.12631
G1 X133.081 Y112.224 E38.15665
G1 X133.009 Y111.997 E38.18285
G1 X132.891 Y111.783 E38.20973
G1 X132.721 Y111.581 E38.23877
G1 X132.533 Y111.433 E38.26509
G1 X132.317 Y111.318 E38.29201
G1 X132.081 Y111.248 E38.31908
G1 X131.834 Y111.224 E38.34638
G1 X131.585 Y111.248 E38.37390
G0 F9000 X131.549 Y110.875
G0 X131.781 Y109.747
G0 X131.805 Y109.374
G1 F1200 X132.643 Y109.484 E38.46687
G1 X133.395 Y109.795 E38.55638
G1 X134.041 Y110.291 E38.64597
G1 X134.536 Y110.937 E38.73550
G1 X134.845 Y111.682 E38.82422
G1 X134.956 Y112.501 E38.91513
G1 X134.853 Y113.290 E39.00266
G1 X134.538 Y114.061 E39.09427
G1 X134.041 Y114.708 E39.18402
G1 X133.395 Y115.204 E39.27361
G1 X132.643 Y115.515 E39.36312
G1 X131.810 Y115.625 E39.45555
G1 X98.268 Y116.098 E43.14553
G1 X97.508 Y116.039 E43.22938
G1 X96.780 Y115.825 E43.31285
G1 X96.115 Y115.465 E43.39603
G1 X95.538 Y114.971 E43.47959
G1 X95.078 Y114.370 E43.56284
G1 X95.055 Y114.318 E43.56909
G1 X95.044 Y114.265 E43.57505
G1 X95.047 Y114.214 E43.58067
G1 X95.087 Y114.117 E43.59221
G1 X95.122 Y114.079 E43.59789
G1 X95.164 Y114.051 E43.60344
G1 X95.200 Y114.038 E43.60765
G1 X101.605 Y114.025 E44.31221
G1 X102.331 Y113.815 E44.39534
G1 X102.361 Y113.806 E44.39879
G1 X103.042 Y113.780 E44.47375
G1 X103.077 Y113.778 E44.47761
G1 X103.739 Y113.915 E44.55197
G1 X104.386 Y114.218 E44.63056
G1 X104.413 Y114.231 E44.63385
G1 X104.841 Y114.603 E44.69623
G1 X105.342 Y114.851 E44.75772
G1 X105.415 Y114.888 E44.76673
G1 X105.960 Y115.001 E44.82795
G1 X106.041 Y115.018 E44.83706
G1 X106.600 Y114.993 E44.89861
G1 X106.683 Y114.987 E44.90776
G1 X107.214 Y114.823 E44.96889
G1 X107.294 Y114.797 E44.97815
G1 X107.763 Y114.506 E45.03886
G1 X107.835 Y114.462 E45.04814
G1 X108.221 Y114.058 E45.10961
G1 X108.279 Y113.998 E45.11878
G1 X108.547 Y113.514 E45.17964
G1 X108.589 Y113.441 E45.18891
G1 X108.750 Y112.819 E45.25958
G1 X108.750 Y112.180 E45.32987
G1 X108.589 Y111.560 E45.40033
G1 X108.319 Y111.072 E45.46168
G1 X108.277 Y110.999 E45.47095
G1 X107.893 Y110.598 E45.53202
G1 X107.836 Y110.538 E45.54112
G1 X107.362 Y110.244 E45.60248
G1 X107.291 Y110.200 E45.61167
G1 X106.760 Y110.036 E45.67280
G1 X106.683 Y110.011 E45.68170
G1 X106.125 Y109.985 E45.74315
G1 X106.044 Y109.980 E45.75208
G1 X105.497 Y110.094 E45.81354
G1 X105.416 Y110.111 E45.82264
G1 X104.916 Y110.358 E45.88399
G1 X104.841 Y110.396 E45.89324
G1 X104.421 Y110.761 E45.95445
G1 X104.412 Y110.769 E45.95577
G1 X103.801 Y111.062 E46.03031
G1 X103.772 Y111.076 E46.03385
G1 X103.104 Y111.214 E46.10888
G1 X103.072 Y111.221 E46.11249
G1 X102.394 Y111.195 E46.18712
G1 X102.359 Y111.193 E46.19098
G1 X101.705 Y111.005 E46.26583
G1 X101.607 Y110.975 E46.27710
G1 X95.483 Y110.975 E46.95074
G1 X95.205 Y110.963 E46.98135
G1 X95.164 Y110.948 E46.98615
G1 X95.122 Y110.920 E46.99171
G1 X95.061 Y110.836 E47.00313
G1 X95.047 Y110.785 E47.00894
G1 X95.044 Y110.734 E47.01456
G1 X95.055 Y110.680 E47.02063
G1 X95.078 Y110.631 E47.02658
G1 X95.535 Y110.031 E47.10954
G1 X96.105 Y109.541 E47.19223
G1 X96.769 Y109.179 E47.27542
G1 X97.491 Y108.963 E47.35831
G1 X98.262 Y108.902 E47.44339
G1 X114.565 Y109.132 E49.23690
G1 X114.630 Y109.132 E49.24405
G1 X131.805 Y109.374 E51.13349
G0 F9000 X131.503 Y110.113
;TYPE:FILL
G1 F1200 X132.118 Y110.339 E51.19062
G1 X133.244 Y111.076 E51.30635
G1 X133.994 Y112.215 E51.42364
G1 X133.957 Y112.955 E51.47224
G1 X133.746 Y113.523 E51.51308
G1 X133.419 Y113.973 E51.55057
G1 X132.994 Y114.326 E51.58814
G1 X132.446 Y114.557 E51.62739
G1 X132.310 Y114.809 E51.65889
G0 F9000 X131.106 Y114.383
G1 F1200 X131.607 Y114.884 E51.73683
G0 F9000 X130.840 Y114.895
G1 F1200 X125.980 Y110.035 E52.49287
G0 F9000 X125.191 Y110.024
G1 F1200 X130.073 Y114.906 E53.25233
G0 F9000 X129.306 Y114.916
G1 F1200 X124.402 Y110.013 E54.01513
G0 F9000 X123.614 Y110.002
G1 F1200 X128.539 Y114.927 E54.78128
G0 F9000 X127.772 Y114.938
G1 F1200 X122.825 Y109.991 E55.55086
G0 F9000 X122.036 Y109.979
G1 F1200 X127.005 Y114.949 E56.32393
G0 F9000 X126.238 Y114.960
G1 F1200 X121.246 Y109.968 E57.10050
G0 F9000 X120.458 Y109.957
G1 F1200 X125.471 Y114.970 E57.88034
G0 F9000 X124.703 Y114.981
G1 F1200 X119.669 Y109.946 E58.66353
G0 F9000 X118.880 Y109.935
G1 F1200 X123.936 Y114.991 E59.45006
G0 F9000 X123.169 Y115.002
G1 F1200 X118.091 Y109.924 E60.24001
G0 F9000 X117.302 Y109.913
G1 F1200 X122.403 Y115.013 E61.03346
G0 F9000 X121.635 Y115.024
G1 F1200 X116.513 Y109.902 E61.83025
G0 F9000 X115.725 Y109.891
G1 F1200 X120.868 Y115.034 E62.63032
G0 F9000 X120.101 Y115.045
G1 F1200 X114.935 Y109.880 E63.43388
G0 F9000 X114.147 Y109.869
G1 F1200 X119.334 Y115.056 E64.24079
G0 F9000 X118.567 Y115.067
G1 F1200 X113.358 Y109.858 E65.05112
G0 F9000 X112.569 Y109.846
G1 F1200 X117.800 Y115.078 E65.86495
G0 F9000 X117.033 Y115.088
G1 F1200 X111.780 Y109.835 E66.68212
G0 F9000 X110.991 Y109.824
G1 F1200 X116.266 Y115.099 E67.50272
G0 F9000 X115.498 Y115.109
G1 F1200 X110.202 Y109.813 E68.32659
G0 F9000 X109.413 Y109.802
G1 F1200 X114.731 Y115.120 E69.15387
G0 F9000 X113.965 Y115.131
G1 F1200 X108.624 Y109.791 E69.98466
G0 F9000 X109.216 Y111.161
G1 F1200 X113.197 Y115.142 E70.60396
G0 F9000 X112.430 Y115.153
G1 F1200 X109.492 Y112.215 E71.06100
G0 F9000 X109.476 Y112.976
G1 F1200 X111.663 Y115.163 E71.40122
G0 F9000 X110.896 Y115.174
G1 F1200 X109.316 Y113.594 E71.64701
G0 F9000 X109.060 Y114.116
G1 F1200 X110.129 Y115.185 E71.81331
G0 F9000 X108.747 Y114.580
G1 F1200 X108.864 Y115.087 E71.90905
G1 X108.595 Y115.206 E71.94140
G0 F9000 X105.862 Y115.465
G0 X103.994 Y115.272
G1 F1200 X103.306 Y114.584 E72.04843
G1 X103.994 Y115.272 E72.15546
G0 F9000 X102.487 Y114.543
G1 F1200 X102.856 Y114.913 E72.27053
G1 X103.226 Y115.283 E72.32808
G0 F9000 X101.883 Y114.717
G1 F1200 X102.171 Y115.005 E72.41769
G1 X102.459 Y115.293 E72.46249
G0 F9000 X101.157 Y114.769
G1 F1200 X101.425 Y115.037 E72.54587
G1 X101.693 Y115.305 E72.58756
G0 F9000 X100.380 Y114.770
G1 F1200 X100.653 Y115.042 E72.67242
G1 X100.926 Y115.315 E72.71489
G0 F9000 X99.605 Y114.772
G1 F1200 X99.881 Y115.049 E72.80092
G1 X100.158 Y115.326 E72.84401
G0 F9000 X98.828 Y114.774
G1 F1200 X99.110 Y115.055 E72.93159
G1 X99.392 Y115.337 E72.97546
G0 F9000 X98.052 Y114.775
G1 F1200 X98.338 Y115.061 E73.06461
G1 X98.625 Y115.348 E73.10925
G0 F9000 X97.276 Y114.777
G1 F1200 X97.545 Y115.046 E73.19295
G1 X97.814 Y115.315 E73.23479
G0 F9000 X98.280 Y115.623
G0 X133.704 Y114.371
G0 X133.156 Y110.209
G0 X97.580 Y109.430
G0 X95.554 Y110.611
G0 X98.175 Y110.231
G1 F1200 X97.639 Y109.695 E73.31817
G1 X98.271 Y109.938 E73.40146
G1 X98.660 Y109.938 E73.49248
G1 X99.054 Y109.944 E73.58351
G1 X99.443 Y109.944 E73.67282
G1 X99.838 Y109.949 E73.76210
G1 X100.227 Y109.949 E73.84955
G1 X100.621 Y109.955 E73.93695
G1 X101.010 Y109.955 E74.02260
G1 X101.405 Y109.961 E74.10825
G1 X101.866 Y110.033 E74.21473
G1 X102.260 Y110.038 E74.32104
G1 X102.691 Y110.080 E74.43900
G1 X103.086 Y110.086 E74.55704
G1 X103.391 Y110.003 E74.64725
G1 X103.785 Y110.008 E74.73740
G1 X104.027 Y109.861 E74.77999
G1 X104.164 Y109.998 E74.80130
G0 F9000 X97.397 Y110.231
G1 F1200 X97.042 Y109.876 E74.85653
G1 X97.397 Y110.231 E74.91175
G0 F9000 X106.768 Y109.542
G0 X126.769 Y110.046
G1 F1200 X129.953 Y113.230 E75.40706
G0 F9000 X129.829 Y112.328
G1 F1200 X127.558 Y110.057 E75.76035
G0 F9000 X128.347 Y110.068
G1 F1200 X129.978 Y111.699 E76.01407
G0 F9000 X129.136 Y110.079
G1 F1200 X130.278 Y111.222 E76.19180
G0 F9000 X129.925 Y110.090
G1 F1200 X130.696 Y110.472 E76.30883
G1 X131.199 Y110.587 E76.36558
;LAYER:1
M106 S10
G0 F9000 X131.577 Y110.699 Z0.400
;TYPE:WALL-INNER
G1 F1320 X131.220 Y110.789 E76.40608
G1 X130.872 Y110.963 E76.44888
G1 X130.570 Y111.204 E76.49138
G1 X130.380 Y111.440 E76.52471
G1 X130.195 Y111.749 E76.56432
G1 X130.073 Y112.118 E76.60708
G1 X130.032 Y112.503 E76.64967
G1 X130.069 Y112.823 E76.68510
G1 X130.112 Y112.968 E76.70174
G1 X130.125 Y113.108 E76.71720
G1 X130.256 Y113.346 E76.74709
G1 X130.299 Y113.461 E76.76059
G1 X130.570 Y113.794 E76.80782
G1 X130.819 Y113.996 E76.84309
G1 X130.952 Y114.067 E76.85967
G1 X131.049 Y114.147 E76.87350
G1 X131.479 Y114.288 E76.92328
G1 X131.858 Y114.329 E76.96521
G1 X132.152 Y114.301 E76.99770
G1 X132.502 Y114.212 E77.03743
G1 X132.849 Y114.040 E77.08003
G1 X133.154 Y113.797 E77.12292
G1 X133.344 Y113.566 E77.15583
G1 X133.413 Y113.438 E77.17182
G1 X133.503 Y113.322 E77.18797
G1 X133.649 Y112.903 E77.23678
G1 X133.694 Y112.510 E77.28029
G1 X133.668 Y112.220 E77.31232
G1 X133.626 Y112.081 E77.32829
G1 X133.601 Y111.917 E77.34654
G1 X133.411 Y111.521 E77.39485
G1 X133.161 Y111.209 E77.43883
G1 X132.933 Y111.022 E77.47127
G1 X132.799 Y110.949 E77.48806
G1 X132.670 Y110.854 E77.50568
G1 X132.255 Y110.713 E77.55389
G1 X131.867 Y110.671 E77.59682
G1 X131.577 Y110.699 E77.62887
G0 F9000 X130.266 Y111.781
G0 X130.324 Y113.311
G0 X131.495 Y114.213
G0 X131.774 Y115.076
G1 F1320 X107.137 Y115.423 E80.33921
G1 X107.522 Y115.303 E80.38357
G1 X108.185 Y114.892 E80.46937
G1 X108.724 Y114.328 E80.55519
G1 X109.104 Y113.645 E80.64116
G1 X109.300 Y112.889 E80.72707
G1 X109.300 Y112.110 E80.81276
G1 X109.104 Y111.354 E80.89867
G1 X108.724 Y110.671 E80.98465
